dist/img/sprites/ph_currency-rub-bold.svg

<svg width="20" height="20" viewBox="0 0 20 20" fill="none" xmlns="http://www.w3.org/2000/svg">
<path d="M11.5625 12.1875C12.8886 12.1875 14.1604 11.6607 15.098 10.723C16.0357 9.78535 16.5625 8.51358 16.5625 7.1875C16.5625 5.86142 16.0357 4.58965 15.098 3.65197C14.1604 2.71428 12.8886 2.1875 11.5625 2.1875H6.875C6.62636 2.1875 6.3879 2.28627 6.21209 2.46209C6.03627 2.6379 5.9375 2.87636 5.9375 3.125V10.3125H4.375C4.12636 10.3125 3.8879 10.4113 3.71209 10.5871C3.53627 10.7629 3.4375 11.0014 3.4375 11.25C3.4375 11.4986 3.53627 11.7371 3.71209 11.9129C3.8879 12.0887 4.12636 12.1875 4.375 12.1875H5.9375V13.4375H4.375C4.12636 13.4375 3.8879 13.5363 3.71209 13.7121C3.53627 13.8879 3.4375 14.1264 3.4375 14.375C3.4375 14.6236 3.53627 14.8621 3.71209 15.0379C3.8879 15.2137 4.12636 15.3125 4.375 15.3125H5.9375V16.875C5.9375 17.1236 6.03627 17.3621 6.21209 17.5379C6.3879 17.7137 6.62636 17.8125 6.875 17.8125C7.12364 17.8125 7.3621 17.7137 7.53791 17.5379C7.71373 17.3621 7.8125 17.1236 7.8125 16.875V15.3125H11.25C11.4986 15.3125 11.7371 15.2137 11.9129 15.0379C12.0887 14.8621 12.1875 14.6236 12.1875 14.375C12.1875 14.1264 12.0887 13.8879 11.9129 13.7121C11.7371 13.5363 11.4986 13.4375 11.25 13.4375H7.8125V12.1875H11.5625ZM7.8125 4.0625H11.5625C12.3913 4.0625 13.1862 4.39174 13.7722 4.97779C14.3583 5.56384 14.6875 6.3587 14.6875 7.1875C14.6875 8.0163 14.3583 8.81116 13.7722 9.39721C13.1862 9.98326 12.3913 10.3125 11.5625 10.3125H7.8125V4.0625Z" fill="#8C8C8C"/>
</svg>

<svg width="20" height="20" viewBox="0 0 20 20" fill="none" xmlns="http://www.w3.org/2000/svg"><path d="M11.563 12.188a5 5 0 100-10H6.875a.937.937 0 00-.938.937v7.188H4.375a.938.938 0 000 1.874h1.563v1.25H4.375a.938.938 0 000 1.876h1.563v1.562a.937.937 0 001.875 0v-1.563h3.437a.938.938 0 000-1.874H7.812v-1.25h3.75zm-3.75-8.126h3.75a3.125 3.125 0 110 6.25h-3.75v-6.25z" fill="#8C8C8C"/></svg>
